-----BEGIN PGP PUBLIC KEY BLOCK-----
Comment: Hostname: 
Version: Hockeypuck 2.2

xsFNBGPaOfsBEACz1HOBWvzcQ1VMkSSXny+D0x7709aJt4runJDoAkPytvWaD7DT
a0+to76iSr6UaFRNCzHfbEW6OwzmplyYngH7cTS13Jz1v8aalxhCvvTqinmx/wrF
+kFhPvU2XY9FTM82m3pvITf+8lgW9zQg7gipp4DkikB9lyJqOoQS+kjVb86O4pHb
zRQu9eC7CI7zyvMOWxhy42WXr5Lnhh4gL0imHyiWXFXyxvo6Cg2eGLmfl8XIblvn
TpF5XOd/crBuMe85Ok8ZdFsdEd27kSfMb8cf5hBBzbciOKCY/itCJ3BgOdDwKBrl
qedy/sM2dyVxLtvGYypZoHfc051NA2/sSLHkUN7XYGnnjPLePg5nIhlcFaPpVkIV
9VnSqU38Z0ZzcWBpdEGDjQY6k/W6ZkdX7O3dgQrTL4u0O05IP7Go8YmWoTVNpOzG
bjww0fKkMWyNBXBvmSB2TYd3gcNPh63jaQa969C1qiVQLpmIs13myp+ulbitfAbl
uE8FRq8F6AwStaCoCZbxt6S4BVsnNt/VCUQoA4vjga3vSVUSFLfWOoSOFV2KxMFN
zlrmZkKV5/flq50RwZMUqiQqr/KaLjolzqc4HFlXdlxDDyNDZppwBQPyIXqPF8Al
XeVdmNTKEgYTow8KZJpP9z2kYiOtf2pd0O3v9hkfhx+Gq/JWvTyrLOlViQARAQAB
zSNNYXJqYW4gR3JhYm93c2tpIDxoZWxsb0BrbmFnZ2l0LmRlPsLBjwQTAQoAOQIb
AQQLCQgHBBUKCQgFFgIDAQACHgECF4AWIQQPPfwwUizqLxURjNB0JuL3ioTrBgUC
Y+3vEAIZAQAKCRB0JuL3ioTrBq5aEACXyAR+OiwOuZkh0YdVCLm7wruPGBlRPB96
ZpYjyax25VIRNTcMou7tXLFgq94f0eV29Rm6lDVB49oLg1FzE6llgFf4+wFP3RxE
d0f/D5MiwDdw4/hXy8NbOjVRBroEz2qDnftZCJpzW0ZkcHepzbAniOPm8MgOxyGq
01y/oixK3ftT9SXhqFV7I9bRR+VmG21jT2bK2m99BzuMCEXNkTH/Zn6w4bL+2X9X
tPB3Tuhh+VLQcxWnl7p6s/oIjruukV4UkomXZrVjl41x4KVU21yLk8f/NramMelh
HTth4M59KHgwhRnkAKkkkrwZtOi3eIQbD8a9zDHP1QeM/2ui+bMTXpgKhtbcRR5p
18SoizecvhyjEhD5x9xJt/Xopn4cKMieIlSjdN33N8adAiBAVi3koAC7qprIlh4g
g4DXK+Cyx/eU9fZbC5DKxlr8CjhsQc4QmQSx9rBv5wK271lk1QT4pUG2OzUHqtDu
44AtuHgAtZy40psEGgv43zKB3c459PB4x1LGVqzO0BdDQg6xrXPnHQWaEE/+m+OB
7WosVIQQ/k4u9R2DvpdWiY6eSZ1K2bGM0ab/Efim3phc7vGtEdc833SdsCSVNUYy
AsNVKVVHvDXtFb6rikixqrqIsbny+xRbvQaHZQKsRO+nQtptObSGCFkUD4ehQDok
IyY5U8cLPsLBjAQTAQoANhYhBA89/DBSLOovFRGM0HQm4veKhOsGBQJj2jn7AhsB
BAsJCAcEFQoJCAUWAgMBAAIeAQIXgAAKCRB0JuL3ioTrBt3ZD/91o9L3b27BcfHs
ayL6IltCIWNu14hIu+BVCcFd7Va9fVWr877fv5i0hCeduUxeoqTbTz36yXeQj66Z
LWfuATGHr6PK3/88J3wT7RqKFCaTiNlMoXDfBo94hPwen6bp0O8E0CzT0Hzv7eUz
Ye/rJsimXQephXPNNrCeZvc/UMdcN1Q4ZHTiyn8HIYxYLdtJQsMZ6W/jnLmcSVh/
BX0qWaD90DmQe9umqzF08WTe+Nb8I+ZDrj+f8bzIuvEk25eg+U9iLZqOEbZb00rn
G2EQhJyi5zwDI4c0sTATp290PmCSXvxp4t+c8nnT5Jl1SASzHoTg/6rlIh63f7Y0
ET4wsSF54aVrUvw22helg0a9gr31H39lrS1OdIJ+Aw8hcnfpp4A8gYHgvMQysUuK
DyaCFh8bZh7bR/kNTKHSKHJls3UAvMiI5h+6UhabuksdS0RyZbxTyk71oLpJrDRA
gQEJzJfmXwG3TGjr+2A8rR4+xFO7VKnLrQnKetpUVEx0W2V1KO0ndfmFnhVIwx6p
Z+B09o4LnWm7kd+SNJbILUAGqE7WNw5q9mawr27TYiUTVXE+BPhH5sAmW0FpDQi/
Zhlyr3wf4Tvw5ryFuUfDizJptXtAdO1krSQ85yUySzoxJJKYKyEpks3vJ1dDqurV
pEnE7mQLjP1iWJ1crARZRqDsQiQoNc0hTWFyamFuIEdyYWJvd3NraSA8Z2l0QGtu
YWdnaXQuZGU+wsGMBBMBCgA2FiEEDz38MFIs6i8VEYzQdCbi94qE6wYFAmPt68oC
GwEECwkIBwQVCgkIBRYCAwEAAh4BAheAAAoJEHQm4veKhOsG1RMQAJfK4W7rpM9y
gg7DprULFbYJ09O3eubELUPlTmQzfQRIV/utp1RA0O5kFGMDli77ZgDxN1Ehr4D3
V+5n0Dmwiwh+jbkftCVNNm8G16QOEAABGo+exEA6t+0HIAxSfHQjIPOFzYtejPcU
KMhLx4ERcGn3WK0Kf0+Qd9KsBrf7GSy26nTC5/Qmq0CYcaJ4udRIpHSd0WUSoKps
5jQBsXd+b8lmwTrL+pLvBvyGvTQS+3/5VDQwCFDYT0b9jZM16hu1ivgZKe6cGFFw
wdBBF9EJ+2duEZOi4NKFMY862S6w+2yVJ6JwuVCuOZp8xUMueNbGCXyOR9f54hiM
jf2uyQ6bPGvS10DC0e5qjlVfPlaRyrDIBTbtFRfcDmRP8JmsKhMwNTqUH7WIfxEF
REVlq4nbeQOJNQwpz7BF0v4ktMOwCJLmyzKlfd50if8Bvz+gnwDTSQBIvWt+smE4
AO/RimJcQUWXySINEi/UQG3GeZilV/c9L+4PEpisSxvKsJlkbWIPpi+wMoiGJHVo
pTMLTE08NKi9P4ZlGVsXSC+pfVMUXPm3i7C37KS2BaWjqkswxTyhZ/NrHWHcUPYM
8IVOD1Us0NVUjlY6GSWXi28E33xctymMC7+JSfdjooPEkZCpqFduxK0EDwfIxD4K
fKZiq+qz4W4KEpplRzehIf0WtlSfXEaxzsFNBGPaO4gBEAC4pm7jwsSnIKyVX8b3
RcLC1pNp6yo5oyjVlazmsfm85i60c055kY/F1FbXACk/oZ01VoIsCvj751x0ytdr
x5t2UlvUy66OtH5fp7JiwbS7V7E7nmFbCNJIzf/lUnkWlU5Q9z5W231r6f7qL6sP
qdcjvndTy2idRVL8W9AU6EZPm9imcCZIJRaPa5gGRoQ5V7fdvd861YBPVQ3VURjL
yyy/tTyRuXtd3Ecvjc24xvMqJlZ+XXRnCZSsEcYrvzE3CM+LJGnpQOeZJtr34MtY
oehEpEGfYcB0kJgudeqUJcR4U8kLZoRMQJZj+gJBBMcs/4D8EXkcGG1RW6f/9zzZ
wasY5iI9MoN7Zt10yd0/rWxKi/sXz0i+P0P71LkY1kyVo445XIgOumMtuChHrTCv
MqJTrcLah6jZmNg5rZI0y8QHf4IP/G6HBY9/sNsxyXk1BQ3q8GHxP99aslXhHBea
26Z+lMw9Kv1zHxLihBTEMn0O/veu4ZXnh9rXZjpt/sX93veSVUXmu88s9OTcwETL
Dyo/30fOjkdA1A2KXezJMAiN2CZNLZcmA4T8fSoj5Qv9y9QXRzgHNj0O9It1sFnL
u2AyOkZP55HQX7d0GEptEcxRp4mTkTVE2SgUjitwBcpCoE6N5uGxkFNvmel+mja5
BLSC6mXvaIX0VzdKuoStB+WodwARAQABwsF8BBgBCgAmFiEEDz38MFIs6i8VEYzQ
dCbi94qE6wYFAmPaO4gCGyAFCQ7iDwAACgkQdCbi94qE6wbJqxAApc8oeSjLbZQq
3x6XKZAxrQanc0si5CrJFdD9z8wxNX8qu2Mvhe1mQfFu0n18U5GngWfd0HVNWHj+
3rrRjckGfbbDcUinTpmEivKpSBn0QSFFYf4K05IoMt846QnOIHUYY13DU20kfnGK
5mpTQ3se8Sh8kKypNDNaq5xR93f7cRAbeEl5oOV9I6bqxdlCIgr08bXt6q3sW7gO
SbsS8i+aN41B8B8UOiVBTfpc9UzXegP4i0I5vSwqVONKOu1Db7l6CCite2GBlN9H
vF6JhsZxrl8DpYKs/d50pEWT7vYvdtRPQeu8atWgiqqIuLYT6Y3qAekDPnl9sA2O
NUhM3Kdsk42F+q4xPe/EfPSG1RRfJTBCABjEoi63EzY0A6CnWRB853km8q+JbLya
S9+KMoyrLGVvjaDULeTsxblvGAreGHuAFFWyiaCk1ErvcEllCMCebY6SWnqWO86+
P1ZqvrlXR8rJ2DYmmGNH2Ujx7IKC9TweYMKetcd+Hv6l7a8sjLfkukp5U6aMn80V
QAgj8Osg0jVY7vAdENNVINVK5HJG5o2BoJsxXyCj2QCT2UJKscBxTkiAxg4CsLEk
Yf/2gxCJ6dDoVI4hwbOAD9DVB4bh480uJOS7yzcQDBqcZDa7XYzsku431TwuG9EK
u4UkwnnYYNFUyuCDOVZC/HxB3cZYDHHOwU0EY9o7aAEQAMYtNStXcuSGWbH6Db7L
T7VXSC2o+e9ilxV0s+FtwWA5uqclKS14ISd1vQkbgPb6CbgjlwskEmf15R0X7Umh
H7eAY72tPN0/GLGPpvHS63g6o4FWTE/ES4wj49KRUMhd5qufMgFX3IHMj/0Xqd8W
tkgfDdH7F92IgbGF0fkshmlzOwEU2gzGrbCxX7JdEKN6EQwgUbYYsB5UkcRgdmFv
LPr13WT7RfuvVrbF8NP8NsS9DRC23pH41kEnF7EKvsgAymfyw5jJJPOIjbZ9eLut
BqpvuSc2Yl/dLhOyk5CI80JM7/g1jh84WuMYL0144gSJOKMhrd9fTyuUsQVJEqiD
srcQjfBIytlffu4RLdmOoX+PmwA56svSe8+zTEOJeHBHg63r76I6x//im67mzd7o
pN7v4xw36cbjxox6XP6DtOBkUXg19WmpBTbRlwuOBjjm+SJ08GeaMhAlkIRS7gBc
tOSO8WlQR5qR4ZSBIcCA4wudhHbtPpy3jYujzMwcx407NTnpTZsiTIOd1Ajzs7Nn
sKAbC2gA+PF90FkPku+1xA62hjH1Ro1+a90bhPQ9Q9VRXwwGs4Z0K6JWdi2Fn1wW
/ems6XE603f19m93FUBcuCleee1FatCPI/M229HRjIe8HK6zRO1uwjVjNigbV0vs
vYBVl2pMwt5l+Gby6AyPBaNVABEBAAHCwXwEGAEKACYWIQQPPfwwUizqLxURjNB0
JuL3ioTrBgUCY9o7aAIbDAUJDuIPAAAKCRB0JuL3ioTrBvzlD/9z/gOqWD7Q9yns
PGPkFtu4vA986sWFCCU22BKaHAdBU0nhFngOyirSikL2s0H/rXLvWTwNKyreoa52
LJcnAzhqSm3m1C2JBWe+QnGABNF4TJHe9dOksYcBsIZrtLmpwTwmhw5iv0GQc74N
+f8Od09+Da6HAbjTJrZQV3rXmGphBJ9iuVs0RkUDEU21TgsqnGudMYvsNxqQz3Mp
lg9FZieppRaRlJGl831IZgOQ67KRch3eLztqo8fNg+c0qfyp8EU117BYRu9oeIMC
v3SPiTYgZPgkD8IZZhr7X2UsPHQjFn4TBlrTbgHqpYi4Y/o/IFwBQhsEW+BfHk9p
kzV9wIwVSStYX0GZ1F+aVMpqchZr8PzhPADhRw2IXkYnSECuZ4xQl6RudkaVJVaE
KDy9aHjerw+9X/hccWt0ozyVervdKNYJSliZiEvoPiIHVqIyr9qM3mlDDQp7qj34
lVYIR13s6wtGtaBqngPYWU+QbrwnOlHSu52dSV0+ijLnoclxItTAa0k6uSIVR5vu
et51YadSjCguwwjUNwulAco0AMee0xP3i+LjbtQ97iRZuEagAiarSxZsd3hh8nVQ
ZXD9SgIW83bwMSW/UBuS6HHwLF86oyiitRTe2tOtWy///Wams7QCSi2dmuJGhtVY
tB2DnCCss1gBANitlWzhsNETO0FDg87BTQRj2jpJARAAszanwjXPg0sD5PKPRP3T
IH7iV9/SgY8oc26OjeMxb1XSvlt/IxRM7yRkTyFhol0uqbDI+PJgy93SQUwC2mkF
9sw26/IX7DEIwAaG5eR3DWqMe55tpGO7PjqwrRILtuDOv2BsIQWo9dQ5uXqZvIcQ
V3Rm8JUBcrOGiw/iD7CPCrs6kEESNpOPbOQLeNq782avq2T4z+tVf6Jsau2YtZSZ
keLcVHNaxAorTOFfyEMO7KyoxVkZtdIJXOQY7+YsaQcveq5zQz3wCqDRqUxVMmqC
leNVWjrVcMq2Guj+nnuo6Sav3uH0RoWIL5U+dx75jql5IEfFPBEmPSl/8VpcYL9D
FO4QXUH47DbFjuvhdC3U3Gh9U1rgOtyVCGAvUi9+R9DlWvoEJ8xy1mJZzGj+hKuw
BLRCNBqNklg+oks+vXW0Z5WOyaB5o6vh3JRyEJxE/mFGBTj73BuczGUepUSLbBrO
PV1iy3fXHHkwjkcgDClkTKYSTJ+5iHVP8qHTpDMS4m512LXa/h1EQvqvIUrHQ/eR
BIhdy/bpNKNsfGctmae8HnaYZKLkek5RcX14eGaoPiUibUvaLzIjIgvVXJgVnQ8+
XEnznyacALMTesG+UmvTeImBbY26L83nZ9SR6H2kQNi5pRoS2/wtnqYy/hPZJOQm
FCHumFBX1Gad/60hpNA0dV0AEQEAAcLDsQQYAQoAJhYhBA89/DBSLOovFRGM0HQm
4veKhOsGBQJj2jpJAhsCBQkO4g8AAkAJEHQm4veKhOsGwXQgBBkBCgAdFiEEBcgd
AMZKljAK5LzZD/2Jm4lraMwFAmPaOkkACgkQD/2Jm4lraMxTPA//dNdBRgvNld0z
0MM2pqMeiAlPVXvrpacka3N3lga2YL4iwH/4YgktL5q/ojFCmr47t0AFhLlIxIB3
UEQc8nI7A+xz/pEFcUxYd16woU/L9KJ/kNbEaNe0owUGp6SFLiQLFGqKXwBtMHA3
yf5ZZLGUL+yS2mhLBkGHWC4xGOyI2T4ZO62h5bqeivly8d7KcNjGYiHXn2IPIO4X
OtHOrcCbexZn/9mDye1e1OCLCwRBQNP5Rcq39FNjOYT3KtPEYitl+Pznn1g1acA/
lybJPU3Vctzcp8LMq/tCCt8t9Y8u8jwHx9et2mkc5CTC/QZ4yJKqRcndxVsrfwku
p7h8ZJaCN8ejNrkZM5ErsPgXQL4ar08/H+Hko0r2EyvK7TYLYaVlBqIMlA5/M1XF
nkLN0bjA2d+Ah8I+0ZDFfz2hb9E7gzXd83zVRQ5WAIkj7iuDw3Bg+Ljp3T8U+cot
sWtZcgDEZirU0JEB+JFXp1XuZcWBKKFa+Nnc7Ioi4+vsaUS468nfeiPSScKoYOlr
Hh97sdvJSQKtUlyzF3qvy6WOx0Sh1wOfV4RaDYKOgRF+yiiXIOlAmDm7OhDym/pI
KzWU5D/datX5y3z5uUyA53k5LTEWavKKWH7drO/+7R6bM4ewBS6C7bekn5DWVcx1
tb6I17ZQe2ktuQyVZi9/R8ZD1TXrwiRGqg/4joDN1DmTeF55jAUWehy5ADgiD5L0
Vk9qGWKKFStcTUyLB/1GmO8oye02FPirlKNY4GzQ5bPicuaFOuORkWQ5kWkxid29
D6S1S1kGzuAEInzD3pa+GT4l6zR0xGRaFoLbQ1AYXqd6GRn0qBlUyYYoNaURq+IE
a8Z/XS8tDklEPeR/EGRFDk2AxUD50RGEnGxxBAA+AASNjxjcq9FIHx8M3l9rjhn4
fke6DBqLxQFv9jgjuewIIwCYg+/ad18inB9abx00uswAy9FU78MM4b7ewIIkBkWg
cx2iDIwC3EqO8a1eqGCGTyCNaRnW9zukmtXolNlX48oE0BxV82NXGder1MHNTjVf
MofW3NP+Bcx6F7DrrXM2aC1KdjwoQ4TZL5aYSFR3J91geeNuzNj9y+TmtTEwyTrX
GqlMnzzjCHGeNH4dEwvIr8gLTe3xS4+5Aa2j3noeioJbI4d+DNBxe78ef9s4ZxBY
scrLpAUN+bqPV5L8uQp1U/ISSr//BDvFCwYEjoXP0scbN//k93B+wFSzckyBu6Ao
LHt4A38wlkTv3w+gUXreXuuIDe5sMci9gzL8C2OPTeWG7xm0vwtEWf8ViCNEKKXM
I2qV7r5s1yN2d8ZQWukkUDln9sjNANob88eTsISC4NfQvZV7OPHL3AeJkHR8Q3ob
x5ZwdKk6lv+gQA==
=GRgR
-----END PGP PUBLIC KEY BLOCK-----
